X:1
T:Októbernak, októbernak elesején
C:Hungarian folk song
Z:Public Domain
L:1/8
M:4/4
K:C
V:1 treble nm="Voice"
%%MIDI program 52
V:1
 dccc dccc | d c3 c4 | AAAA ccGA | G F3 F4 | DDDC DDDC | F G3 c4 | AAFF GGFC | D D3 D2 z2 |] %8
w: Ok- tó- ber- nak, ok- tó- ber- nak|el- se- jén|Nem süt a nap Csí- karc- fal- va|me- ze- jén,|El- bú- csú- zom a ma- dár- tól,|s~az ág- tól,|Az- u- tán a csík- karc- fal- vi|lá- nyok- tól.|

